blockchains/ethereum/assets/0xba100000625a3754423978a60c9317c58a424e3D/logo.svg

<svg fill="none" height="250" viewBox="0 0 250 250" width="250" xmlns="http://www.w3.org/2000/svg" xmlns:xlink="http://www.w3.org/1999/xlink"><clipPath id="a"><path d="m0 0h250v250h-250z"/></clipPath><g clip-path="url(#a)"><path clip-rule="evenodd" d="m125 0c69.025 0 125 55.975 125 125s-55.975 125-125 125-125-55.975-125-125 55.975-125 125-125z" fill="#fff" fill-rule="evenodd"/><g fill="#000"><path d="m126.875 177.25c-39.975 0-72.375-11.55-72.375-27.025 0-8.075 8.825-15.35 22.95-20.475 11.025 7.075 29.525 10.7 50.5 10.7 20.475 0 38.575-4.425 49.7-11.2 13.325 5.075 21.6 12.15 21.6 19.95 0 15.5-32.4 28.05-72.375 28.05z"/><path d="m127.3 136.972c-30.3002 0-54.8752-9.5-54.8752-21.225 0-6.5 7.575-12.325 19.45-16.2001 8.4752 4.4251 21.1752 7.2501 35.4252 7.2501s26.95-2.825 35.425-7.2501c11.9 3.9001 19.45 9.7001 19.45 16.2001.025 11.725-24.55 21.225-54.875 21.225z"/><path d="m127.1 103.273c-23.425 0-42.4252-7.8496-42.4252-17.4996s19.0002-17.5 42.4252-17.5 42.425 7.85 42.425 17.5-19 17.4996-42.425 17.4996z"/></g></g></svg>

<svg width="250" height="250" viewBox="0 0 250 250" fill="none" xmlns="http://www.w3.org/2000/svg">
<g clip-path="url(#clip0_50_11552)">
<path fill-rule="evenodd" clip-rule="evenodd" d="M125 0C194.025 0 250 55.975 250 125C250 194.025 194.025 250 125 250C55.975 250 0 194.025 0 125C0 55.975 55.975 0 125 0Z" fill="white"/>
<path d="M126.875 177.25C86.9 177.25 54.5 165.7 54.5 150.225C54.5 142.15 63.325 134.875 77.45 129.75C88.475 136.825 106.975 140.45 127.95 140.45C148.425 140.45 166.525 136.025 177.65 129.25C190.975 134.325 199.25 141.4 199.25 149.2C199.25 164.7 166.85 177.25 126.875 177.25Z" fill="black"/>
<path d="M127.3 136.972C96.9998 136.972 72.4248 127.472 72.4248 115.747C72.4248 109.247 79.9998 103.422 91.8748 99.5469C100.35 103.972 113.05 106.797 127.3 106.797C141.55 106.797 154.25 103.972 162.725 99.5469C174.625 103.447 182.175 109.247 182.175 115.747C182.2 127.472 157.625 136.972 127.3 136.972Z" fill="black"/>
<path d="M127.1 103.273C103.675 103.273 84.6748 95.4234 84.6748 85.7734C84.6748 76.1234 103.675 68.2734 127.1 68.2734C150.525 68.2734 169.525 76.1234 169.525 85.7734C169.525 95.4234 150.525 103.273 127.1 103.273Z" fill="black"/>
</g>
<defs>
<clipPath id="clip0_50_11552">
<rect width="250" height="250" fill="white"/>
</clipPath>
</defs>
</svg>
